!!!COM: Music21
!!!OTL: A Rianxeira
!!!OMV: pezas_valses_a-rianxeira_a-rianxeira-partitura-1.musicxml
**kern
*I"Bagpipes
*I'Bag
*clefG^2
*k[]
*M3/4
=1
!LO:TX:a:t=Presto
*MM160
!LO:TX:a:t=[quarter]=160
4.gg
8gg
4gg
=
4gg
4aa
4gg
=
2.gg
=
2.ee
=
4.gg
8gg
4gg
=
4gg
4aa
4gg
=
[2.ff
=
2.ff]
=
4.bb
8bb
4bb
=
4ccc
4bb
4aa
=
2aa
4gg
=
4bb
4aa
4gg
=
2gg
4ff
!!linebreak:original
=
4aa
4gg
4ff
=
[2.ee
=
2.ee]
=||
*M3/4
!LO:TX:a:t=Presto
*MM160
!LO:TX:a:t=[quarter]=160
4.gg
8gg
4gg
=
4gg
4aa
4gg
=
2.gg
=
2.ee
=
4.gg
8gg
4gg
=
4gg
4aa
4gg
=
[2.ff
=
2.ff]
=
4.bb
8bb
4bb
=
4ccc
4bb
4aa
!!linebreak:original
=
2aa
4gg
=
4bb
4aa
4gg
=
2gg
4ff
!!linebreak:original
=
4aa
4gg
4ff
=
[2.ee
=
2ee]
4cc
=||
4ee
4ee
4ee
=
4ee
2ff
=
4gg
4gg
4gg
=
4aa
4aa
4aa
=
2gg
8aaL
8ggJ
=
2ff
8ggL
8ffJ
=
[2.ee
=
2ee]
4cc
=||
4ee
4ee
4ee
=
4ee
2ff
!!linebreak:original
=
4gg
4gg
4gg
=
4aa
4aa
4aa
=
2gg
8aaL
8ggJ
=
2ff
8ggL
8ffJ
=
[2.ee
=
2ee]
4cc
=||
4aa
4aa
4aa
!!linebreak:original
=
4aa
2aa
=
4aa
4gg
4ee
=
4gg
4gg
4gg
=
4gg
2bb
=
2aa
8bbL
8aaJ
=
[2.gg
=
2gg]
4cc
=||
4aa
4aa
4aa
!!linebreak:original
=
4aa
2aa
=
4aa
4gg
4ee
=
4gg
4gg
4gg
=
4gg
2aa
=
2ff
8ggL
8ffJ
=
[2.ee
=
2.ee]
=||
4gg
4gg
4gg
=
2gg
4ee
=
4gg
4gg
4gg
=
2gg
4ee
!!linebreak:original
=
4gg
4gg
4gg
=
4aa
4aa
4aa
=
[2.bb
=
2.bb]
=
4.bb
8bb
4bb
=
4ccc
4bb
4aa
=
2ccc
4aa
=
2.gg
=
4.bb
8aa
4gg
=
4aa
4gg
4ff
=
2.ee
=||
4gg
4gg
4gg
=
2gg
4ee
!!linebreak:original
=
4gg
4gg
4gg
=
2gg
4ee
!!linebreak:original
=
4gg
4gg
4gg
=
4aa
4aa
4aa
=
[2.bb
=
2.bb]
=
4.bb
8bb
4bb
=
4ccc
4bb
4aa
=
2ccc
4aa
=
2.gg
=
4.bb
8aa
4gg
=
4aa
4gg
4ff
=
2.ee
=||
*-
